public/images/poses-lg/Fish.svg

<svg width="800" height="800" fill="none" xmlns="http://www.w3.org/2000/svg"><g clip-path="url(#a)"><path d="M289.58 731.546c10.92-18.705 36.704-24.272 58.261-42.988 0 0 31.974 13.957 39.286 16.096 27.493 8.053 54.197 12.302 82.414 16.266 49.059 6.891 89.553 22.987 138.283 26.354 17.403 1.203 38.699 4.369 58.227 5.993 1.313.108 8.302.571 12.28.577 28.718.031 41.825 1.485 61.628.031 16.503-1.21 32.701-16.613 41.237-7.792 5.947 6.14-37.132 31.406-49.399 36.965-9.385 4.253-38.258 20.203-37.397-3.447a.579.579 0 0 0-.537-.606c-46.307-2.473-88.793 8.409-134.326 13.178-33.299 3.491-60.011-5.212-95.351-4.682-29.123.436-72.849 5.385-104.023 5.364-16.928-.011-34.895-2.614-48.124-14.059-16.917-14.637-8.355-32.189-22.459-47.25Z" fill="#fff" stroke="#000" stroke-width="5" stroke-miterlimit="10"/><path d="M289.58 731.546c10.92-18.705 36.704-24.272 58.261-42.988 0 0 31.974 13.957 39.286 16.096 27.493 8.053 54.197 12.302 82.414 16.266 49.059 6.891 89.553 22.987 138.283 26.354 17.403 1.203 38.699 4.369 58.227 5.993 1.313.108 8.302.571 12.28.577 28.718.031 41.825 1.485 61.628.031 16.503-1.21 32.701-16.613 41.237-7.792 5.947 6.14-37.132 31.406-49.399 36.965-9.385 4.253-38.258 20.203-37.397-3.447a.579.579 0 0 0-.537-.606c-46.307-2.473-88.793 8.409-134.326 13.178-33.299 3.491-60.011-5.212-95.351-4.682-29.123.436-72.849 5.385-104.023 5.364-16.928-.011-34.895-2.614-48.124-14.059-16.917-14.637-8.355-32.189-22.459-47.25Z" stroke="#000" stroke-width="5" stroke-miterlimit="10"/><path d="M287.087 729.127c-24.212-21.426-64.592-28.437-99.034-31.428-4.101-.357-36.882-15.313-36.126-19.039.222-1.082-.299-2.049-.254-3.108-3.37-.731-5.061-1.88-8.672-2.621-23.202-4.771-41.086 1.562-62.326 11.744-6.347 3.048-12.246-2.22-10.448-9.248.023-.093.018-.216.066-.301 5.13-8.647 11.736-16.211 17.21-24.628 16.096-5.869 31.467-12.1 45.917-21.01 3.759-2.318 7.684-4.344 11.784-5.991.312-.124.632-.256.968-.395 14.215-5.891 30.171-13.91 45.7-15.998 21.892-2.941 37.605-.741 58.951 15.673 27.048 20.801 58.263 51.447 97.018 65.781 0 0-8.481 8.017-31.036 20.304-17.09 9.31-24.05 17.268-27.224 22.688l-2.494-2.423Z" fill="#fff" stroke="#000" stroke-width="5" stroke-miterlimit="10"/><path d="M287.087 729.127c-24.212-21.426-64.592-28.437-99.034-31.428-4.101-.357-36.882-15.313-36.126-19.039.222-1.082-.299-2.049-.254-3.108-3.37-.731-5.061-1.88-8.672-2.621-23.202-4.771-41.086 1.562-62.326 11.744-6.347 3.048-12.246-2.22-10.448-9.248.023-.093.018-.216.066-.301 5.13-8.647 11.736-16.211 17.21-24.628 16.096-5.869 31.467-12.1 45.917-21.01 3.759-2.318 7.684-4.344 11.784-5.991.312-.124.632-.256.968-.395 14.215-5.891 30.171-13.91 45.7-15.998 21.892-2.941 37.605-.741 58.951 15.673 27.048 20.801 58.263 51.447 97.018 65.781 0 0-8.481 8.017-31.036 20.304-17.09 9.31-24.05 17.268-27.224 22.688l-2.494-2.423Z" stroke="#000" stroke-width="5" stroke-miterlimit="10"/><path d="M135.121 671.707s-13.818-19.18 5.74-30.024c30.776-17.063 50.616 9.718 46.934 56.365" stroke="#000" stroke-width="5" stroke-miterlimit="10"/><path d="M130.333 671.367s-16.18-18.731 1.893-36.467c4.413-4.332 3.199-6.611 3.199-6.611" stroke="#000" stroke-width="5" stroke-miterlimit="10"/><path d="M135.856 657.881s-2.832 3.183.555 13.486c8.289 27.306 44.591 84.133 63.737 110.697 4.891 6.787 12.739 10.789 21.105 10.827 31.283.141 89.828.598 99.594.037 1.048-.06 2.094-.11 3.141-.154 7.327-.316 13.492.327 20.837.076 27.91-.944 52.327 1.193 52.253-.993-.198-6.212-18.628-12.402-32.222-13.352-5.5-.382-21.977 1.771-21.977 1.771-29.591-.909-69.756-19.947-109.444-21.49-3.457-.133-6.596-2.082-8.205-5.146l-39.462-72.904" fill="#fff"/><path d="M135.856 657.881s-2.832 3.183.555 13.486c8.289 27.306 44.591 84.133 63.737 110.697 4.891 6.787 12.739 10.789 21.105 10.827 31.283.141 89.828.598 99.594.037 1.048-.06 2.094-.11 3.141-.154 7.327-.316 13.492.327 20.837.076 27.91-.944 52.327 1.193 52.253-.993-.198-6.212-18.628-12.402-32.222-13.352-5.5-.382-21.977 1.771-21.977 1.771-29.591-.909-69.756-19.947-109.444-21.49-3.457-.133-6.596-2.082-8.205-5.146l-39.462-72.904" stroke="#000" stroke-width="5" stroke-miterlimit="10"/><path d="M135.856 657.881s-2.832 3.183.555 13.486c8.289 27.306 44.591 84.133 63.737 110.697 4.891 6.787 12.739 10.789 21.105 10.827 31.283.141 89.828.598 99.594.037 1.048-.06 2.094-.11 3.141-.154 7.327-.316 13.492.327 20.837.076 27.91-.944 52.327 1.193 52.253-.993-.198-6.212-18.628-12.402-32.222-13.352-5.5-.382-21.977 1.771-21.977 1.771-29.591-.909-69.756-19.947-109.444-21.49-3.457-.133-6.596-2.082-8.205-5.146l-39.462-72.904" stroke="#000" stroke-width="5" stroke-miterlimit="10"/><path d="M98.948 666.451c3.732 7.759-.328 14.88.488 24.31 1.294 14.981-17.742 28.382-34.424 26.308-22.026-2.743-17.813-81.774-4.913-82.281 7.639-.302 21.033 7.016 30.244 20.272 2.961 4.263 8.605 11.391 8.605 11.391Z" fill="#fff" stroke="#000" stroke-width="5" stroke-miterlimit="10"/><path d="M98.948 666.451c3.732 7.759-.328 14.88.488 24.31 1.294 14.981-17.742 28.382-34.424 26.308-22.026-2.743-17.813-81.774-4.913-82.281 7.639-.302 21.033 7.016 30.244 20.272 2.961 4.263 8.605 11.391 8.605 11.391Z" stroke="#000" stroke-width="5" stroke-miterlimit="10"/><path d="M56.376 707.235c1.22-13.83 13.108-38.207 30.192-32.491 19.211 6.432 12.025-5.799 10.741-9.584-1.285-3.783-10.32-11.385-8.297-12.3 2.02-.912 26.42 11.927 27.723 32.084 1.301 20.153-6.939 29.077-17.72 34.527-10.782 5.451-27.807 5.179-37.709-1.902-9.904-7.082-4.93-10.334-4.93-10.334Z" fill="#000" stroke="#000" stroke-width="5" stroke-miterlimit="10"/><path d="M56.696 708.931c-1.774 31.93-.284 36.871-22.03 43.798-22.176 7.065-15.699 32.027-11.088 34.346 20.805 10.478 103.495 4.78 122.42.193 18.925-4.586 14.194-32.732-1.184-37.735-15.376-4.998-28.256-16.301-28.173-30.713.083-14.411 6.924-23.488-2.264-42.969l-57.681 33.08Z" fill="#000" stroke="#000" stroke-width="5" stroke-miterlimit="10"/><path d="M693.903 753.998c-2.083 8.529-12.487 24.64-12.487 24.64" stroke="#000" stroke-width="5" stroke-miterlimit="10"/></g><defs><clipPath id="a"><path fill="#fff" d="M0 0h800v800H0z"/></clipPath></defs></svg>

<svg width="800" height="800" viewBox="0 0 800 800" fill="none" xmlns="http://www.w3.org/2000/svg">
<g clip-path="url(#clip0_298_12120)">
<path d="M289.58 731.546C300.5 712.841 326.284 707.274 347.841 688.558C347.841 688.558 379.815 702.515 387.127 704.654C414.62 712.707 441.324 716.956 469.541 720.92C518.6 727.811 559.094 743.907 607.824 747.274C625.227 748.477 646.523 751.643 666.051 753.267C667.364 753.375 674.353 753.838 678.331 753.844C707.049 753.875 720.156 755.329 739.959 753.875C756.462 752.665 772.66 737.262 781.196 746.083C787.143 752.223 744.064 777.489 731.797 783.048C722.412 787.301 693.539 803.251 694.4 779.601C694.411 779.286 694.174 779.009 693.863 778.995C647.556 776.522 605.07 787.404 559.537 792.173C526.238 795.664 499.526 786.961 464.186 787.491C435.063 787.927 391.337 792.876 360.163 792.855C343.235 792.844 325.268 790.241 312.039 778.796C295.122 764.159 303.684 746.607 289.58 731.546Z" fill="white" stroke="black" stroke-width="5" stroke-miterlimit="10"/>
<path d="M289.58 731.546C300.5 712.841 326.284 707.274 347.841 688.558C347.841 688.558 379.815 702.515 387.127 704.654C414.62 712.707 441.324 716.956 469.541 720.92C518.6 727.811 559.094 743.907 607.824 747.274C625.227 748.477 646.523 751.643 666.051 753.267C667.364 753.375 674.353 753.838 678.331 753.844C707.049 753.875 720.156 755.329 739.959 753.875C756.462 752.665 772.66 737.262 781.196 746.083C787.143 752.223 744.064 777.489 731.797 783.048C722.412 787.301 693.539 803.251 694.4 779.601C694.411 779.286 694.174 779.009 693.863 778.995C647.556 776.522 605.07 787.404 559.537 792.173C526.238 795.664 499.526 786.961 464.186 787.491C435.063 787.927 391.337 792.876 360.163 792.855C343.235 792.844 325.268 790.241 312.039 778.796C295.122 764.159 303.684 746.607 289.58 731.546Z" stroke="black" stroke-width="5" stroke-miterlimit="10"/>
<path d="M287.087 729.127C262.875 707.701 222.495 700.69 188.053 697.699C183.952 697.342 151.171 682.386 151.927 678.66C152.149 677.578 151.628 676.611 151.673 675.552C148.303 674.821 146.612 673.672 143.001 672.931C119.799 668.16 101.915 674.493 80.6751 684.675C74.3275 687.723 68.4289 682.455 70.2271 675.427C70.2503 675.334 70.2451 675.211 70.2935 675.126C75.4226 666.479 82.0295 658.915 87.5023 650.498C103.599 644.629 118.97 638.398 133.42 629.488C137.179 627.17 141.104 625.144 145.204 623.497C145.516 623.373 145.836 623.241 146.172 623.102C160.387 617.211 176.343 609.192 191.872 607.104C213.764 604.163 229.477 606.363 250.823 622.777C277.871 643.578 309.086 674.224 347.841 688.558C347.841 688.558 339.36 696.575 316.805 708.862C299.715 718.172 292.755 726.13 289.581 731.55L287.087 729.127Z" fill="white" stroke="black" stroke-width="5" stroke-miterlimit="10"/>
<path d="M287.087 729.127C262.875 707.701 222.495 700.69 188.053 697.699C183.952 697.342 151.171 682.386 151.927 678.66C152.149 677.578 151.628 676.611 151.673 675.552C148.303 674.821 146.612 673.672 143.001 672.931C119.799 668.16 101.915 674.493 80.6751 684.675C74.3275 687.723 68.4289 682.455 70.2271 675.427C70.2503 675.334 70.2451 675.211 70.2935 675.126C75.4226 666.479 82.0295 658.915 87.5023 650.498C103.599 644.629 118.97 638.398 133.42 629.488C137.179 627.17 141.104 625.144 145.204 623.497C145.516 623.373 145.836 623.241 146.172 623.102C160.387 617.211 176.343 609.192 191.872 607.104C213.764 604.163 229.477 606.363 250.823 622.777C277.871 643.578 309.086 674.224 347.841 688.558C347.841 688.558 339.36 696.575 316.805 708.862C299.715 718.172 292.755 726.13 289.581 731.55L287.087 729.127Z" stroke="black" stroke-width="5" stroke-miterlimit="10"/>
<path d="M135.121 671.707C135.121 671.707 121.303 652.527 140.861 641.683C171.637 624.62 191.477 651.401 187.795 698.048" stroke="black" stroke-width="5" stroke-miterlimit="10"/>
<path d="M130.333 671.367C130.333 671.367 114.153 652.636 132.226 634.9C136.639 630.568 135.425 628.289 135.425 628.289" stroke="black" stroke-width="5" stroke-miterlimit="10"/>
<path d="M135.856 657.881C135.856 657.881 133.024 661.064 136.411 671.367C144.7 698.673 181.002 755.5 200.148 782.064C205.039 788.851 212.887 792.853 221.253 792.891C252.536 793.032 311.081 793.489 320.847 792.928C321.895 792.868 322.941 792.818 323.988 792.774C331.315 792.458 337.48 793.101 344.825 792.85C372.735 791.906 397.152 794.043 397.078 791.857C396.88 785.645 378.45 779.455 364.856 778.505C359.356 778.123 342.879 780.276 342.879 780.276C313.288 779.367 273.123 760.329 233.435 758.786C229.978 758.653 226.839 756.704 225.23 753.64L185.768 680.736" fill="white"/>
<path d="M135.856 657.881C135.856 657.881 133.024 661.064 136.411 671.367C144.7 698.673 181.002 755.5 200.148 782.064C205.039 788.851 212.887 792.853 221.253 792.891C252.536 793.032 311.081 793.489 320.847 792.928C321.895 792.868 322.941 792.818 323.988 792.774C331.315 792.458 337.48 793.101 344.825 792.85C372.735 791.906 397.152 794.043 397.078 791.857C396.88 785.645 378.45 779.455 364.856 778.505C359.356 778.123 342.879 780.276 342.879 780.276C313.288 779.367 273.123 760.329 233.435 758.786C229.978 758.653 226.839 756.704 225.23 753.64L185.768 680.736" stroke="black" stroke-width="5" stroke-miterlimit="10"/>
<path d="M135.856 657.881C135.856 657.881 133.024 661.064 136.411 671.367C144.7 698.673 181.002 755.5 200.148 782.064C205.039 788.851 212.887 792.853 221.253 792.891C252.536 793.032 311.081 793.489 320.847 792.928C321.895 792.868 322.941 792.818 323.988 792.774C331.315 792.458 337.48 793.101 344.825 792.85C372.735 791.906 397.152 794.043 397.078 791.857C396.88 785.645 378.45 779.455 364.856 778.505C359.356 778.123 342.879 780.276 342.879 780.276C313.288 779.367 273.123 760.329 233.435 758.786C229.978 758.653 226.839 756.704 225.23 753.64L185.768 680.736" stroke="black" stroke-width="5" stroke-miterlimit="10"/>
<path d="M98.9476 666.451C102.68 674.21 98.6198 681.331 99.4356 690.761C100.73 705.742 81.6936 719.143 65.0119 717.069C42.9861 714.326 47.1992 635.295 60.0989 634.788C67.7377 634.486 81.1318 641.804 90.3433 655.06C93.3041 659.323 98.9476 666.451 98.9476 666.451Z" fill="white" stroke="black" stroke-width="5" stroke-miterlimit="10"/>
<path d="M98.9476 666.451C102.68 674.21 98.6198 681.331 99.4356 690.761C100.73 705.742 81.6936 719.143 65.0119 717.069C42.9861 714.326 47.1992 635.295 60.0989 634.788C67.7377 634.486 81.1318 641.804 90.3433 655.06C93.3041 659.323 98.9476 666.451 98.9476 666.451Z" stroke="black" stroke-width="5" stroke-miterlimit="10"/>
<path d="M56.3755 707.235C57.5961 693.405 69.4839 669.028 86.5682 674.744C105.779 681.176 98.593 668.945 97.3092 665.16C96.0243 661.377 86.9899 653.775 89.0116 652.86C91.0322 651.948 115.432 664.787 116.735 684.944C118.036 705.097 109.796 714.021 99.0147 719.471C88.2326 724.922 71.2084 724.65 61.3064 717.569C51.4024 710.487 56.3755 707.235 56.3755 707.235Z" fill="black" stroke="black" stroke-width="5" stroke-miterlimit="10"/>
<path d="M56.696 708.931C54.9221 740.861 56.4119 745.802 34.6654 752.729C12.4901 759.794 18.9673 784.756 23.5783 787.075C44.3833 797.553 127.073 791.855 145.998 787.268C164.923 782.682 160.192 754.536 144.814 749.533C129.438 744.535 116.558 733.232 116.641 718.82C116.724 704.409 123.565 695.332 114.377 675.851L56.696 708.931Z" fill="black" stroke="black" stroke-width="5" stroke-miterlimit="10"/>
<path d="M693.903 753.998C691.82 762.527 681.416 778.638 681.416 778.638" stroke="black" stroke-width="5" stroke-miterlimit="10"/>
</g>
<defs>
<clipPath id="clip0_298_12120">
<rect width="800" height="800" fill="white"/>
</clipPath>
</defs>
</svg>
